X:325
T:Cameronian
R:Reel
M:C|
D:asin=B000000E87(Mary Bergin: Feadoga Stain 2)
D:asin=B000006CF5(Cherish The Ladies: One And All: The Best Of Cherish The Ladies)
D:asin=B000005CM2(Green Linnet Twentieth Anniver: Green Linnet Records: The Twentieth...)
D:asin=B000005COY(Cherish The Ladies: Out And About)
K:D
dB|:A2FA DAFA|GE {G}(3EDE GBdB|{d}BAFA DAFA|1 GBAG FDeB:|2 GBAG FDD2|\
Ad {e}dc (3ded cd|edef gfed|(3cBA eA fAeA|fdef gfed|\
fgaf bage|dfec defg|(3agf ge fdec|dABG FAdB||
